X: 12919
T: Fiddle Hill, The
R: jig
M: 6/8
K: Dmajor
"G" G2 g f2 e|d^cd edB|G2 B c2 ^c|"D7" d3- dAB|
c2 d c2 d|cAF DFA|1 "D7" ded cdc|"G" B3:|2 "D7" ded cBA|"G" G3||
"D" ABA "A7" GAG|"D" FAd fed|"A7" c2 e B2 c|"(E)" BA^G "A7" AF=G|
"D" ABA "A7" GAG|"D" FAd fed|1 "A7" cBA ABc|"D" d3:|2 "A7" cBA gfe|"D" d3||

